actions/24/system-reboot.svg

<?xml version="1.0" encoding="UTF-8" standalone="no"?>
<!-- Created with Inkscape (http://www.inkscape.org/) -->

<svg
   xmlns:dc="http://purl.org/dc/elements/1.1/"
   xmlns:cc="http://creativecommons.org/ns#"
   xmlns:rdf="http://www.w3.org/1999/02/22-rdf-syntax-ns#"
   xmlns:svg="http://www.w3.org/2000/svg"
   xmlns="http://www.w3.org/2000/svg"
   xmlns:sodipodi="http://sodipodi.sourceforge.net/DTD/sodipodi-0.dtd"
   xmlns:inkscape="http://www.inkscape.org/namespaces/inkscape"
   width="24"
   height="24"
   id="svg13094"
   version="1.1"
   inkscape:version="0.48.3.1 r9886"
   sodipodi:docname="gnome-session-reboot.svg">
  <sodipodi:namedview
     id="base"
     pagecolor="#ffffff"
     bordercolor="#666666"
     borderopacity="1.0"
     inkscape:pageopacity="0.0"
     inkscape:pageshadow="2"
     inkscape:zoom="45.254837"
     inkscape:cx="14.095817"
     inkscape:cy="13.95198"
     inkscape:document-units="px"
     inkscape:current-layer="layer1"
     showgrid="true"
     inkscape:snap-bbox="true"
     inkscape:bbox-paths="true"
     inkscape:bbox-nodes="true"
     inkscape:snap-bbox-edge-midpoints="true"
     inkscape:snap-bbox-midpoints="true"
     inkscape:object-paths="true"
     inkscape:snap-intersection-paths="true"
     inkscape:object-nodes="true"
     inkscape:snap-smooth-nodes="true"
     inkscape:snap-midpoints="true"
     inkscape:snap-object-midpoints="true"
     inkscape:snap-center="true"
     showguides="true"
     inkscape:guide-bbox="true"
     inkscape:window-width="1920"
     inkscape:window-height="1027"
     inkscape:window-x="-10"
     inkscape:window-y="31"
     inkscape:window-maximized="1"
     inkscape:snap-global="true"
     fit-margin-top="0"
     fit-margin-left="0"
     fit-margin-right="0"
     fit-margin-bottom="0"
     showborder="true"
     inkscape:showpageshadow="false">
    <inkscape:grid
       type="xygrid"
       id="grid3183"
       empspacing="5"
       visible="true"
       enabled="true"
       snapvisiblegridlinesonly="true"
       originx="9.5192791e-05px"
       originy="10.999988px" />
  </sodipodi:namedview>
  <defs
     id="defs13096" />
  <metadata
     id="metadata13099">
    <rdf:RDF>
      <cc:Work
         rdf:about="">
        <dc:format>image/svg+xml</dc:format>
        <dc:type
           rdf:resource="http://purl.org/dc/dcmitype/StillImage" />
        <dc:title />
      </cc:Work>
    </rdf:RDF>
  </metadata>
  <g
     transform="translate(9398.6161,-4989.8786)"
     id="layer1"
     inkscape:groupmode="layer"
     inkscape:label="Camada 1">
    <path
       style="fill:#27303a;fill-opacity:0.753280819999999968;fill-rule:nonzero;stroke:none"
       d="m -9387.6786,4993.9411 c -2.4415,0.3257 -4.6246,1.7717 -5.875,3.9375 -2.2091,3.8263 -0.8888,8.7284 2.9375,10.9375 3.8263,2.2091 8.7284,0.8888 10.9375,-2.9375 1.9675,-3.4078 1.1274,-7.673 -1.7812,-10.125 l 1.8438,-1.875 -5,0 0,5 1.4687,-1.4375 0.25,-0.25 c 2.3083,1.8129 2.9799,5.07 1.4687,7.6875 -1.6569,2.8698 -5.3177,3.8444 -8.1875,2.1875 -2.8698,-1.6569 -3.8444,-5.3177 -2.1875,-8.1875 0.9007,-1.5601 2.4477,-2.6087 4.1875,-2.9063 l 0,-2.0312 c -0.021,0 -0.042,0 -0.062,0 z m 0.063,4.9375 0,6 2,0 0,-6 z"
       id="path2997"
       inkscape:connector-curvature="0"
       sodipodi:nodetypes="csssccccccsssccscccccc" />
    <path
       style="color:#000000;fill:#f1f3f5;fill-opacity:0.90288714000000003;fill-rule:nonzero;stroke:none;stroke-width:2;marker:none;visibility:visible;display:inline;overflow:visible;enable-background:accumulate"
       d="M 10.03125 3 C 6.53095 3.7669 3.7669 6.53095 3 10.03125 L 3 13.96875 C 3.7669 17.46915 6.53095 20.2331 10.03125 21 L 13.96875 21 C 17.46915 20.2331 20.2331 17.46915 21 13.96875 L 21 10.03125 C 20.566296 8.0517275 19.48324 6.3117297 18 5.03125 L 17.15625 5.875 C 17.178885 5.8940817 17.196366 5.9181999 17.21875 5.9375 C 17.368353 6.0665509 17.516615 6.2041154 17.65625 6.34375 C 17.817399 6.5052333 17.979576 6.6707007 18.125 6.84375 C 18.134326 6.8548473 18.14699 6.8638577 18.15625 6.875 C 18.165619 6.8862275 18.178191 6.8949705 18.1875 6.90625 C 18.325897 7.074648 18.439097 7.2595608 18.5625 7.4375 C 18.58416 7.4686003 18.603773 7.4998297 18.625 7.53125 C 18.732337 7.6908914 18.842284 7.8337663 18.9375 8 C 18.972356 8.0603412 18.997937 8.126177 19.03125 8.1875 C 19.107524 8.3289747 19.182467 8.4795553 19.25 8.625 C 19.289761 8.7104044 19.338198 8.7879902 19.375 8.875 C 19.387785 8.9052374 19.393838 8.9383681 19.40625 8.96875 C 19.49408 9.1837409 19.556075 9.4035531 19.625 9.625 C 19.654466 9.7196699 19.692788 9.8105781 19.71875 9.90625 C 19.761419 10.064188 19.810672 10.213349 19.84375 10.375 C 19.858397 10.444853 19.862206 10.523513 19.875 10.59375 C 19.908953 10.785928 19.948779 10.990849 19.96875 11.1875 C 19.994487 11.436448 19.997659 11.686355 20 11.9375 C 20.000082 11.948086 19.999959 11.958154 20 11.96875 C 20.001188 12.188084 19.98575 12.405261 19.96875 12.625 C 19.963879 12.687381 19.975043 12.750529 19.96875 12.8125 C 19.951777 12.980348 19.934058 13.145188 19.90625 13.3125 C 19.889448 13.414689 19.864386 13.524155 19.84375 13.625 C 19.835087 13.666758 19.821854 13.708315 19.8125 13.75 C 19.807572 13.771963 19.78637 13.790559 19.78125 13.8125 C 19.733699 14.003012 19.683208 14.187853 19.625 14.375 C 19.593228 14.476958 19.567342 14.586318 19.53125 14.6875 C 19.479736 14.832046 19.434458 14.984425 19.375 15.125 C 19.361794 15.156041 19.357381 15.187809 19.34375 15.21875 C 19.328584 15.253178 19.296943 15.2782 19.28125 15.3125 C 19.092978 15.718785 18.873873 16.100368 18.625 16.46875 C 18.578006 16.538387 18.548852 16.61977 18.5 16.6875 C 18.434864 16.786413 18.354861 16.875791 18.28125 16.96875 C 18.248662 17.00985 18.220873 17.053311 18.1875 17.09375 C 17.956202 17.374347 17.699804 17.632745 17.4375 17.875 C 17.398877 17.909383 17.350817 17.934588 17.3125 17.96875 C 17.155901 18.107713 17.009551 18.249686 16.84375 18.375 C 16.723292 18.466726 16.594431 18.540092 16.46875 18.625 C 16.376599 18.686895 16.281898 18.75464 16.1875 18.8125 C 16.128248 18.848992 16.060263 18.871273 16 18.90625 C 15.836391 19.000801 15.669335 19.104963 15.5 19.1875 C 15.471587 19.202522 15.434805 19.204067 15.40625 19.21875 C 15.204038 19.314207 15.02149 19.421839 14.8125 19.5 C 14.672078 19.552595 14.51904 19.580199 14.375 19.625 C 14.272815 19.656875 14.165853 19.690968 14.0625 19.71875 C 14.040078 19.724716 14.022499 19.744225 14 19.75 C 13.91975 19.77085 13.830863 19.762881 13.75 19.78125 C 13.436351 19.852501 13.133085 19.935443 12.8125 19.96875 C 12.543409 19.996707 12.271622 19.999417 12 20 C 11.732242 20.000575 11.455642 19.995339 11.1875 19.96875 C 11.125318 19.962435 11.061753 19.945231 11 19.9375 C 10.785547 19.911094 10.588204 19.887963 10.375 19.84375 C 10.332088 19.834969 10.292659 19.821965 10.25 19.8125 C 10.044075 19.766183 9.8285818 19.688308 9.625 19.625 C 9.5748992 19.609417 9.5184232 19.610286 9.46875 19.59375 C 9.3005682 19.537802 9.1345595 19.474082 8.96875 19.40625 C 8.9386558 19.393954 8.9049096 19.387651 8.875 19.375 C 8.6390594 19.275026 8.4170548 19.155855 8.1875 19.03125 C 8.126177 18.997937 8.0603412 18.972356 8 18.9375 C 7.8347095 18.84207 7.6871051 18.730177 7.53125 18.625 C 7.4609014 18.577526 7.3823207 18.545978 7.3125 18.5 C 7.2335998 18.443091 7.17004 18.371851 7.09375 18.3125 C 7.0753501 18.298704 7.049337 18.295572 7.03125 18.28125 C 6.9966126 18.253786 6.9706721 18.216425 6.9375 18.1875 C 6.8971136 18.154417 6.8521085 18.127515 6.8125 18.09375 C 6.7728915 18.059985 6.7263269 18.034432 6.6875 18 C 6.4485208 17.788069 6.2401167 17.547874 6.03125 17.3125 C 5.9185697 17.186114 5.792084 17.070891 5.6875 16.9375 C 5.6646069 16.908084 5.6465377 16.874546 5.625 16.84375 C 5.5353808 16.725177 5.457527 16.591618 5.375 16.46875 C 5.3120732 16.375606 5.2465504 16.283381 5.1875 16.1875 C 5.1513835 16.128577 5.1282818 16.059753 5.09375 16 C 4.9972412 15.833721 4.8970943 15.673592 4.8125 15.5 C 4.7499856 15.371743 4.6805228 15.256177 4.625 15.125 C 4.6072891 15.083127 4.5795145 15.042234 4.5625 15 C 4.5428646 14.951226 4.5472178 14.894176 4.53125 14.84375 C 4.4731903 14.690946 4.4236369 14.530918 4.375 14.375 C 4.342463 14.270389 4.3095597 14.168903 4.28125 14.0625 C 4.2753799 14.040662 4.2556864 14.021886 4.25 14 C 4.2048449 13.824088 4.1582729 13.649121 4.125 13.46875 C 4.1211196 13.448233 4.128667 13.42667 4.125 13.40625 C 4.0886557 13.20589 4.0523268 13.01537 4.03125 12.8125 C 4.0032934 12.543409 4.000583 12.271622 4 12 C 4 11.925763 3.9979907 11.855001 4 11.78125 C 4.0015582 11.718864 4.028224 11.65617 4.03125 11.59375 C 4.0413624 11.394547 4.0380759 11.195096 4.0625 11 C 4.0889057 10.785547 4.1120367 10.588204 4.15625 10.375 C 4.1609645 10.351961 4.1795185 10.334065 4.1875 10.3125 C 4.1897494 10.302109 4.1852078 10.291636 4.1875 10.28125 C 4.1896026 10.271723 4.1853014 10.259563 4.1875 10.25 C 4.233817 10.044075 4.3116918 9.8285818 4.375 9.625 C 4.3905829 9.5748992 4.389714 9.5184232 4.40625 9.46875 C 4.4621975 9.3005682 4.5259178 9.1345595 4.59375 8.96875 C 4.6096229 8.9299011 4.6085366 8.8822906 4.625 8.84375 C 4.6396765 8.8094664 4.6715855 8.7835702 4.6875 8.75 C 4.772889 8.5579411 4.8668677 8.3751932 4.96875 8.1875 C 5.0020625 8.126177 5.0276438 8.0603412 5.0625 8 C 5.1574154 7.8355983 5.269631 7.6871815 5.375 7.53125 C 5.4813388 7.3738833 5.5711178 7.2108814 5.6875 7.0625 C 5.6967142 7.0507524 5.7094749 7.0429401 5.71875 7.03125 C 5.8196404 6.9040065 5.9229501 6.7770399 6.03125 6.65625 C 6.0705246 6.6125785 6.1142309 6.5727917 6.15625 6.53125 C 6.2160574 6.4676475 6.2820241 6.4052426 6.34375 6.34375 C 6.4987355 6.1887645 6.6452761 6.0169051 6.8125 5.875 C 6.8409163 5.8509565 6.8775171 5.8361338 6.90625 5.8125 C 7.114814 5.6403779 7.336982 5.4943529 7.5625 5.34375 C 7.7639525 5.2091625 7.9748108 5.084536 8.1875 4.96875 C 8.2410858 4.9396405 8.2894334 4.9029117 8.34375 4.875 C 8.4783048 4.8056497 8.6116156 4.7491735 8.75 4.6875 C 8.7931076 4.6683553 8.8314951 4.6434009 8.875 4.625 C 8.8838471 4.6212435 8.8973886 4.6287249 8.90625 4.625 C 9.1424667 4.5257051 9.3794591 4.4513965 9.625 4.375 C 9.7612743 4.3326146 9.8919594 4.2851866 10.03125 4.25 C 10.052836 4.2445312 10.072107 4.2240404 10.09375 4.21875 C 10.2756 4.1745074 10.467276 4.1528956 10.65625 4.125 C 10.708342 4.1161269 10.760151 4.1015957 10.8125 4.09375 C 10.854795 4.0874111 10.895045 4.0681635 10.9375 4.0625 L 11 4.0625 L 11 3 L 10.03125 3 z M 13 3 L 13 4 L 13 4.0625 L 13 6.09375 L 13 7.25 L 13 10 L 14 10 L 14 4.1875 L 14 4 L 16.5 4 L 20 4 L 20 3 L 14 3 L 13.96875 3 L 13 3 z M 15.71875 7.3125 L 15.46875 7.5625 L 14.90625 8.125 C 16.082314 9.008847 16.84375 10.415599 16.84375 12 C 16.84375 14.6751 14.6751 16.84375 12 16.84375 L 12 18 C 12.51526 18.000202 13.036264 17.910675 13.53125 17.78125 C 13.541115 17.77865 13.552655 17.783899 13.5625 17.78125 C 13.74763 17.731842 13.914041 17.69191 14.09375 17.625 C 14.115132 17.617039 14.134956 17.601956 14.15625 17.59375 C 14.317785 17.531501 14.470077 17.449964 14.625 17.375 C 14.776309 17.301453 14.917365 17.242664 15.0625 17.15625 C 15.082928 17.144106 15.104729 17.137379 15.125 17.125 C 15.359562 16.981455 15.597804 16.801673 15.8125 16.625 C 15.897913 16.554511 15.981151 16.481278 16.0625 16.40625 C 16.123584 16.349843 16.191037 16.309237 16.25 16.25 C 16.328241 16.171759 16.394907 16.082446 16.46875 16 C 16.522465 15.939418 16.573467 15.875635 16.625 15.8125 C 16.699921 15.721717 16.774182 15.6264 16.84375 15.53125 C 16.885958 15.472716 16.928385 15.404199 16.96875 15.34375 C 17.046715 15.228346 17.117544 15.12093 17.1875 15 C 17.359368 14.702313 17.508795 14.404917 17.625 14.09375 C 17.636361 14.063188 17.645375 14.030795 17.65625 14 C 17.681599 13.928567 17.696256 13.85316 17.71875 13.78125 C 17.804299 13.507765 17.861322 13.21533 17.90625 12.9375 C 17.961286 12.597163 18.004151 12.277612 18 11.9375 C 17.999896 11.927195 18.000156 11.916542 18 11.90625 C 17.999644 11.885913 18.000564 11.864072 18 11.84375 C 17.990843 11.513822 17.938004 11.165925 17.875 10.84375 C 17.871126 10.823941 17.879074 10.801016 17.875 10.78125 C 17.808395 10.455763 17.710739 10.14771 17.59375 9.84375 C 17.23011 8.9009425 16.633352 8.0448983 15.8125 7.375 C 15.783809 7.3513222 15.747885 7.3356511 15.71875 7.3125 z M 10 9 L 10 15 L 11 15 L 11 9 L 10 9 z M 6.8125 15 C 6.8237774 15.020513 6.8317091 15.042277 6.84375 15.0625 C 6.8953623 15.14932 6.943891 15.230883 7 15.3125 L 7 15 L 6.8125 15 z "
       transform="translate(-9398.6161,4989.8786)"
       id="path3003" />
  </g>
</svg>

<?xml version="1.0" encoding="UTF-8"?>
<svg id="a" width="24" height="24" version="1.1" xmlns="http://www.w3.org/2000/svg" xmlns:cc="http://creativecommons.org/ns#" xmlns:dc="http://purl.org/dc/elements/1.1/" xmlns:rdf="http://www.w3.org/1999/02/22-rdf-syntax-ns#">
	<metadata id="d">
		<rdf:RDF>
			<cc:Work rdf:about="">
				<dc:format>image/svg+xml</dc:format>
				<dc:type rdf:resource="http://purl.org/dc/dcmitype/StillImage"/>
				<dc:title/>
			</cc:Work>
		</rdf:RDF>
	</metadata>
	<defs>
		<style id="current-color-scheme" type="text/css">.ColorScheme-Text {color:#090d11;}.ColorScheme-Background{color:#ffffff;}</style>
	</defs>
	<g id="b" transform="translate(9398.6 -4989.9)">
		<path id="c" d="m-9387.7 4993.9c-2.4415 0.3257-4.6246 1.7717-5.875 3.9375-2.2091 3.8263-0.8888 8.7284 2.9375 10.938s8.7284 0.8888 10.938-2.9375c1.9675-3.4078 1.1274-7.673-1.7812-10.125l1.8438-1.875h-5v5l1.4687-1.4375 0.25-0.25c2.3083 1.8129 2.9799 5.07 1.4687 7.6875-1.6569 2.8698-5.3177 3.8444-8.1875 2.1875s-3.8444-5.3177-2.1875-8.1875c0.9007-1.5601 2.4477-2.6087 4.1875-2.9063v-2.0312h-0.062zm0.063 4.9375v6h2v-6z" style="fill-opacity:.75;fill:currentColor" class="ColorScheme-Text"/>
		<path id="e" transform="translate(-9398.6 4989.9)" d="m13 3v1 0.0625 2.0312 1.1562 2.75h1v-5.8125-0.1875h2.5 3.5v-1h-6-0.03125-0.96875zm-3 0.23438c-4.0915 0.93263-6.9956 4.5691-7 8.7656 1.138e-4 4.9705 4.0295 8.9999 9 9 4.9705-1.14e-4 8.9999-4.0295 9-9-5e-3 -2.6267-1.1571-5.1201-3.1543-6.8262l-0.68945 0.70117c0.46548 0.39239 0.87007 0.83623 1.2266 1.3105 0.16079 0.21393 0.3115 0.43279 0.44922 0.66016 0.41682 0.68811 0.7285 1.4309 0.92383 2.2051 0.06035 0.23918 0.10824 0.4807 0.14648 0.72461 7e-3 0.04942 0.013481 0.0989 0.019531 0.14844 0.03078 0.22336 0.052533 0.44811 0.064453 0.67383 0.0021 0.02733 0.00396 0.054682 0.00586 0.082032 0.04906 1.153-0.15232 2.3244-0.62305 3.4355-0.10321 0.24362-0.21812 0.48395-0.34766 0.7207-0.02964 0.054169-0.052954 0.11031-0.083984 0.16406-0.09661 0.16733-0.2059 0.32281-0.3125 0.48047-0.0071 0.01239-0.014294 0.024759-0.021484 0.037109-0.0026 0.0039-0.005213 0.007899-0.007813 0.011719-0.14558 0.21209-0.30049 0.41345-0.46289 0.60742-0.0045 0.0059-0.009101 0.011728-0.013671 0.017578-0.0015 0.0018-0.002407 0.004059-0.003907 0.005859-0.17149 0.20332-0.35275 0.39536-0.54102 0.57812-2.4613 2.3893-6.2711 3.0009-9.4102 1.2832-0.054333-0.029738-0.11021-0.052893-0.16406-0.083984-0.16733-0.096609-0.32281-0.2059-0.48047-0.3125-0.016311-0.0097-0.032587-0.019467-0.048828-0.029297-0.21209-0.14558-0.41345-0.30049-0.60742-0.46289-0.0078199-0.0058-0.015636-0.011698-0.023437-0.017578-0.20332-0.17149-0.39536-0.35275-0.57812-0.54102-2.4306-2.5038-3.0288-6.4054-1.1992-9.5742 0.096892-0.16783 0.20863-0.32343 0.31641-0.48242 0.011008-0.016317 0.022075-0.032593 0.033203-0.048828 0.13877-0.20151 0.28621-0.39367 0.44141-0.58008 0.020683-0.024866 0.041517-0.049606 0.0625-0.074219 0.15964-0.18708 0.32496-0.36649 0.5-0.53711 0.011685-0.011103 0.023404-0.022171 0.035156-0.033203 0.99302-0.95633 2.2123-1.6508 3.5488-1.9961v-1.0137zm5.7168 4.0801-0.24805 0.24805-0.46875 0.42188c1.2139 0.9124 2 2.3644 2 4 0 2.7614-2.2386 5-5 5v1.0156c0.5153 2e-4 1.0362-0.08895 1.5312-0.21875h0.03125c0.1851-0.049 0.35145-0.08905 0.53125-0.15625 0.021-0.01 0.0415-0.02325 0.0625-0.03125 0.1615-0.062 0.31385-0.14375 0.46875-0.21875 0.1513-0.074 0.2924-0.13225 0.4375-0.21875 0.02-0.012 0.040547-0.01925 0.060547-0.03125 0.2346-0.1435 0.4728-0.3233 0.6875-0.5 0.085-0.07 0.1687-0.14365 0.25-0.21875 0.061-0.056 0.1285-0.09705 0.1875-0.15625 0.078-0.078 0.14485-0.1676 0.21875-0.25 0.054-0.061 0.10475-0.1244 0.15625-0.1875 0.075-0.091 0.14915-0.18605 0.21875-0.28125 0.042-0.059 0.085-0.127 0.125-0.1875 0.078-0.1154 0.14875-0.22285 0.21875-0.34375 0.1719-0.2977 0.3213-0.59505 0.4375-0.90625 0.011-0.031 0.02025-0.06275 0.03125-0.09375 0.025-0.071 0.0405-0.14675 0.0625-0.21875 0.086-0.2734 0.1425-0.56595 0.1875-0.84375 0.055-0.3403 0.09775-0.6599 0.09375-1-1e-4 -0.01 2e-4 -0.02125 0-0.03125-4e-4 -0.02 6e-4 -0.0425 0-0.0625-0.01-0.3299-0.062-0.6778-0.125-1v-0.060547c-0.067-0.3254-0.16435-0.6335-0.28125-0.9375-0.3637-0.9428-0.96035-1.7988-1.7812-2.4688-0.029-0.024-0.06475-0.0395-0.09375-0.0625zm-5.7168 1.6855v6h1v-6h-1z" style="fill-opacity:.5;fill:currentColor"  class="ColorScheme-Background"/>
	</g>
</svg>
